X: 4
T: The Shakin's o' the Pocky
T: Air, Bb
L: 1/16
M: C
K: Bb
D2C2 |: B,6D2 F6G2| F4D4 B,4A4| B4B2A2 G2A2B2c2| d8 d8|[1 e6c2 d6B2| c6A2 B4G4| F6D2 B6D2| E4D4 C4D2C2:|
[2 e6c2 d6B2| c6A2 B4G4| F4E2D2 E2D2C4| B,8 B,8|] |: b6f2 d6B2| g4e4 c4g2a2| b6f2 e2d2c2B2| [1 f8 f4g2a2|
b6f2 d6B2| g4e4 c4B2c2| A4A2B2 c2f2f2A2| B8 B4g2a2:| [2 f8 f4e4| d6B2 e6c2| d2c2B2A2 B4G4| F4E2D2 E2D2C4| B,8 B,8 |] 
D: Natalie MacMaster, My Roots Are Showing
B: Skye Collection
